X:494
T:New Castle Slow March. RH.494
R:march
S:Rev.R.Harrison’s MS,c1815,Cumbria
O:England
A:Temple Sowerby,Cumbria
Z:vmp.Simon Wilson. Review PJH, 2008.
M:C|
L:1/8
Q:1/2=60
K:G
d>d|g2g>g a>gaf|g3b d’baf|eefg abc’a|g2f>e d2d>d|!
g2g>g a>gaf|gbd’c’ bagf|e2a>g f>efd|g2g>g g2:|!
|:d’>b|a2b>g f2g>e|d3e fgab|c’d’/c’/ ba gd bg|a2a>a a2z2|!
b2d’>d’ a2d>d|g2ab agfed2|\
b2d’>d’ a2d>d|ga/b/ agfed2|!
d’3b c’3b|c’bag f2ed|e2a>g f>ef>d|g2g>g g2:|

